svg/fluentui-system-icons/ic_fluent_compose_24_regular.svg

<svg width="24" height="24" viewBox="0 0 24 24" fill="none" xmlns="http://www.w3.org/2000/svg">
<path d="M21.7803 3.28033C22.0732 2.98744 22.0732 2.51256 21.7803 2.21967C21.4874 1.92678 21.0125 1.92678 20.7196 2.21967L10.7197 12.2197L10.25 13.75L11.7803 13.2803L21.7803 3.28033ZM6.25 3C4.45507 3 3 4.45508 3 6.25V17.75C3 19.5449 4.45507 21 6.25 21H17.75C19.5449 21 21 19.5449 21 17.75V9.75C21 9.33579 20.6642 9 20.25 9C19.8358 9 19.5 9.33579 19.5 9.75V17.75C19.5 18.7165 18.7165 19.5 17.75 19.5H6.25C5.2835 19.5 4.5 18.7165 4.5 17.75V6.25C4.5 5.2835 5.2835 4.5 6.25 4.5H14.25C14.6642 4.5 15 4.16421 15 3.75C15 3.33579 14.6642 3 14.25 3H6.25Z" fill="#212121"/>
</svg>

<svg xmlns="http://www.w3.org/2000/svg" width="24" height="24"><path d="M21.78 3.28a.75.75 0 1 0-1.06-1.06l-10 10-.47 1.53 1.53-.47 10-10ZM6.25 3A3.25 3.25 0 0 0 3 6.25v11.5A3.25 3.25 0 0 0 6.25 21h11.5A3.25 3.25 0 0 0 21 17.75v-8a.75.75 0 0 0-1.5 0v8a1.75 1.75 0 0 1-1.75 1.75H6.25a1.75 1.75 0 0 1-1.75-1.75V6.25c0-.966.784-1.75 1.75-1.75h8a.75.75 0 0 0 0-1.5h-8Z"/></svg>
